X: 23911
T: Loch Lomond
R: reel
M: 4/4
K: Amajor
||e2|A2 AB c2 BA|B2 BA f2 ef|A2 AA A2 ce|f4 e2 e2|
f<f fe c3 e|dcBA f2 ef|A<A c<e f2 ec|B4 A2||

